Flat-Remix-Dark/apps/scalable/code-insiders.svg

<svg xmlns="http://www.w3.org/2000/svg" xmlns:xlink="http://www.w3.org/1999/xlink" width="384pt" height="384pt" version="1.1" viewBox="0 0 384 384">
 <defs>
  <filter id="alpha" width="100%" height="100%" x="0%" y="0%" filterUnits="objectBoundingBox">
   <feColorMatrix in="SourceGraphic" type="matrix" values="0 0 0 0 1 0 0 0 0 1 0 0 0 0 1 0 0 0 1 0"/>
  </filter>
  <mask id="mask1">
   <g filter="url(#alpha)">
    <rect style="fill:rgb(0%,0%,0%);fill-opacity:0.2" width="384" height="384" x="0" y="0"/>
   </g>
  </mask>
  <clipPath id="clip2">
   <rect width="384" height="384" x="0" y="0"/>
  </clipPath>
  <g id="surface8" clip-path="url(#clip2)">
   <path d="M 252 78 L 156.742188 173.257812 L 96 126 L 72 138 L 72 258 L 96 270 L 156.742188 222.742188 L 252 318 L 312 294 L 312 102 Z M 252 148.664062 L 252 247.335938 L 188.578125 197.992188 L 252 148.660156 Z M 96 161.996094 L 132 197.996094 L 96 233.996094 Z M 96 161.996094" style="fill-rule:evenodd;fill:rgb(0%,0%,0%)"/>
  </g>
  <mask id="mask2">
   <g filter="url(#alpha)">
    <rect style="fill:rgb(0%,0%,0%);fill-opacity:0.101961" width="384" height="384" x="0" y="0"/>
   </g>
  </mask>
  <clipPath id="clip3">
   <rect width="384" height="384" x="0" y="0"/>
  </clipPath>
  <g id="surface11" clip-path="url(#clip3)">
   <path d="M 251.0625 24 C 238.660156 24.246094 226.832031 29.285156 218.0625 38.0625 L 152.765625 103.335938 L 125.460938 82.101562 C 110.871094 70.757812 91.0625 68.796875 74.53125 77.0625 L 50.53125 89.0625 C 34.269531 97.195312 24 113.816406 24 132 L 24 137.648438 C 24.125 119.589844 34.378906 103.128906 50.53125 95.050781 L 74.53125 83.050781 C 91.0625 74.785156 110.871094 76.746094 125.460938 88.089844 L 152.765625 109.324219 L 218.0625 44.050781 C 226.832031 35.273438 238.660156 30.234375 251.0625 29.988281 C 257.484375 29.859375 263.871094 31.023438 269.835938 33.410156 L 329.835938 57.410156 C 348.058594 64.707031 360.003906 82.359375 360 101.988281 L 360 96 C 360.003906 76.371094 348.058594 58.71875 329.835938 51.421875 L 269.835938 27.421875 C 263.871094 25.035156 257.484375 23.871094 251.0625 24 Z M 251.0625 24" style="fill:rgb(100%,100%,100%)"/>
  </g>
 </defs>
 <g transform="matrix(0.98681103,0,0,0.98681103,2.5322817,-0.42394526)">
  <path d="m 251.0625,24 c -12.40234,0.246094 -24.23047,5.285156 -33,14.0625 L 152.76562,103.33594 125.46094,82.101562 C 110.87109,70.757812 91.0625,68.796875 74.53125,77.0625 l -24,12 C 34.269531,97.195312 24,113.81641 24,132 v 120 c 0,18.18359 10.269531,34.80469 26.53125,42.9375 l 24,12 c 16.53125,8.26562 36.33984,6.30469 50.92969,-5.03906 l 27.30468,-21.23438 65.29688,65.27344 c 13.57422,13.58203 33.94141,17.76953 51.77344,10.64062 l 60,-24 C 348.05859,325.28125 360.00391,307.62891 360,288 V 96 C 360.004,76.371094 348.05859,58.71875 329.83594,51.421875 l -60,-24 C 263.87109,25.035156 257.48437,23.871094 251.0625,24 Z m 0,0" style="fill:#0ca15e"/>
  <use width="100%" height="100%" x="0" y="0" mask="url(#mask1)" xlink:href="#surface8"/>
  <path d="M 252,72 156.75,167.25 96,120 72,132 V 252 L 96,264 156.75,216.75 252,312 312,288 V 96 Z m 0,70.66406 v 98.67188 L 188.57812,192 Z M 96,156 l 36,36 -36,36 z m 0,0" style="fill:#ffffff;fill-rule:evenodd"/>
  <use width="100%" height="100%" x="0" y="0" mask="url(#mask2)" xlink:href="#surface11"/>
 </g>
 <path d="M 34.955078 321.00391 L 34.955078 331.00391 C 34.955078 354.92893 48.466961 376.79731 69.863281 387.49805 L 101.44141 403.28711 C 123.19237 414.16258 149.25461 411.58177 168.45117 396.65625 L 204.37695 368.71875 L 290.29102 454.60156 C 308.15127 472.47208 334.94966 477.9814 358.41211 468.60156 L 437.35742 437.02344 C 461.33384 427.4226 477.05006 404.19777 477.04492 378.37109 L 477.04492 368.37109 C 477.05006 394.19777 461.33384 417.4226 437.35742 427.02344 L 358.41211 458.60156 C 334.94966 467.9814 308.15127 462.47208 290.29102 444.60156 L 204.37695 358.71875 L 168.45117 386.65625 C 149.2546 401.58177 123.19237 404.16258 101.44141 393.28711 L 69.863281 377.49805 C 48.466948 366.79731 34.955078 344.92893 34.955078 321.00391 z" transform="scale(0.75)" style="opacity:0.3"/>
</svg>

<svg xmlns="http://www.w3.org/2000/svg" xmlns:xlink="http://www.w3.org/1999/xlink" width="384pt" height="384pt" version="1.1" viewBox="0 0 384 384">
 <defs>
  <filter id="alpha" width="100%" height="100%" x="0%" y="0%" filterUnits="objectBoundingBox">
   <feColorMatrix in="SourceGraphic" type="matrix" values="0 0 0 0 1 0 0 0 0 1 0 0 0 0 1 0 0 0 1 0"/>
  </filter>
  <mask id="mask0">
   <g filter="url(#alpha)">
    <rect width="384" height="384" x="0" y="0" style="fill:rgb(0%,0%,0%);fill-opacity:0.2"/>
   </g>
  </mask>
  <clipPath id="clip1">
   <rect width="384" height="384" x="0" y="0"/>
  </clipPath>
  <g id="surface5" clip-path="url(#clip1)">
   <path style="fill:rgb(0%,0%,0%)" d="M 251.0625 29.992188 C 238.660156 30.238281 226.832031 35.277344 218.0625 44.054688 L 152.765625 109.328125 L 125.460938 88.09375 C 110.871094 76.75 91.0625 74.789062 74.53125 83.054688 L 50.53125 95.054688 C 34.269531 103.1875 24 119.808594 24 137.992188 L 24 257.992188 C 24 276.175781 34.269531 292.796875 50.53125 300.929688 L 74.53125 312.929688 C 91.0625 321.195312 110.871094 319.234375 125.460938 307.890625 L 152.765625 286.65625 L 218.0625 351.929688 C 231.636719 365.511719 252.003906 369.699219 269.835938 362.570312 L 329.835938 338.570312 C 348.058594 331.277344 360.003906 313.621094 360 293.992188 L 360 101.992188 C 360.003906 82.363281 348.058594 64.710938 329.835938 57.414062 L 269.835938 33.414062 C 263.871094 31.027344 257.484375 29.863281 251.0625 29.992188 Z M 251.0625 29.992188"/>
  </g>
  <mask id="mask1">
   <g filter="url(#alpha)">
    <rect width="384" height="384" x="0" y="0" style="fill:rgb(0%,0%,0%);fill-opacity:0.2"/>
   </g>
  </mask>
  <clipPath id="clip2">
   <rect width="384" height="384" x="0" y="0"/>
  </clipPath>
  <g id="surface8" clip-path="url(#clip2)">
   <path style="fill-rule:evenodd;fill:rgb(0%,0%,0%)" d="M 252 78 L 156.742188 173.257812 L 96 126 L 72 138 L 72 258 L 96 270 L 156.742188 222.742188 L 252 318 L 312 294 L 312 102 Z M 252 148.664062 L 252 247.335938 L 188.578125 197.992188 L 252 148.660156 Z M 96 161.996094 L 132 197.996094 L 96 233.996094 Z M 96 161.996094"/>
  </g>
  <mask id="mask2">
   <g filter="url(#alpha)">
    <rect width="384" height="384" x="0" y="0" style="fill:rgb(0%,0%,0%);fill-opacity:0.101961"/>
   </g>
  </mask>
  <clipPath id="clip3">
   <rect width="384" height="384" x="0" y="0"/>
  </clipPath>
  <g id="surface11" clip-path="url(#clip3)">
   <path style="fill:rgb(100%,100%,100%)" d="M 251.0625 24 C 238.660156 24.246094 226.832031 29.285156 218.0625 38.0625 L 152.765625 103.335938 L 125.460938 82.101562 C 110.871094 70.757812 91.0625 68.796875 74.53125 77.0625 L 50.53125 89.0625 C 34.269531 97.195312 24 113.816406 24 132 L 24 137.648438 C 24.125 119.589844 34.378906 103.128906 50.53125 95.050781 L 74.53125 83.050781 C 91.0625 74.785156 110.871094 76.746094 125.460938 88.089844 L 152.765625 109.324219 L 218.0625 44.050781 C 226.832031 35.273438 238.660156 30.234375 251.0625 29.988281 C 257.484375 29.859375 263.871094 31.023438 269.835938 33.410156 L 329.835938 57.410156 C 348.058594 64.707031 360.003906 82.359375 360 101.988281 L 360 96 C 360.003906 76.371094 348.058594 58.71875 329.835938 51.421875 L 269.835938 27.421875 C 263.871094 25.035156 257.484375 23.871094 251.0625 24 Z M 251.0625 24"/>
  </g>
 </defs>
 <g>
  <use mask="url(#mask0)" xlink:href="#surface5"/>
  <path style="fill:rgb(0%,61.568627%,23.921569%)" d="M 251.0625 24 C 238.660156 24.246094 226.832031 29.285156 218.0625 38.0625 L 152.765625 103.335938 L 125.460938 82.101562 C 110.871094 70.757812 91.0625 68.796875 74.53125 77.0625 L 50.53125 89.0625 C 34.269531 97.195312 24 113.816406 24 132 L 24 252 C 24 270.183594 34.269531 286.804688 50.53125 294.9375 L 74.53125 306.9375 C 91.0625 315.203125 110.871094 313.242188 125.460938 301.898438 L 152.765625 280.664062 L 218.0625 345.9375 C 231.636719 359.519531 252.003906 363.707031 269.835938 356.578125 L 329.835938 332.578125 C 348.058594 325.28125 360.003906 307.628906 360 288 L 360 96 C 360.003906 76.371094 348.058594 58.71875 329.835938 51.421875 L 269.835938 27.421875 C 263.871094 25.035156 257.484375 23.871094 251.0625 24 Z M 251.0625 24"/>
  <use mask="url(#mask1)" xlink:href="#surface8"/>
  <path style="fill-rule:evenodd;fill:rgb(100%,100%,100%)" d="M 252 72 L 156.75 167.25 L 96 120 L 72 132 L 72 252 L 96 264 L 156.75 216.75 L 252 312 L 312 288 L 312 96 Z M 252 142.664062 L 252 241.335938 L 188.578125 192 Z M 96 156 L 132 192 L 96 228 Z M 96 156"/>
  <use mask="url(#mask2)" xlink:href="#surface11"/>
 </g>
</svg>
